X: 1
T: Rock-a-bye Baby Jig
M: 6/8
L: 1/8
K: D
|: "D"FAf e2d | "D"FAd "A"c3  | "A"Acg    f2e | "E"edB    "A"A3 \
|  "D"FAf e2d | "D"FAd "A"c2B | "A"Acg "D"f2d | "E"eB"A"c "D"d3 :|
